X:1
T:Our Offerings, 66.68.86
T:Our Offerings, 66.68.86
T:Scott Werdebaugh, 2018
T: © 2018 by Scott Werdebaugh &amp; New Heart Music -  may be freely copied or used for Christian worship or devotions with no alterations. All other rights reserved.
C:Scott Werdebaugh, 2018
Z:© 2018 by Scott Werdebaugh & New Heart Music -  may be freely copied or used for
Z:Christian worship or devotions with no alterations. All other rights reserved.
%%score 1 2
L:1/8
Q:1/4=115
M:4/4
K:C
V:1 treble 
V:2 bass 
V:1
 [EG]2 | [Ec]2 [DB]2 [FA]2 [DB]2 | [Ec]4 z2 [DB]2 | [Ec]2 [DB]2 [DA]2 [DA]2 | [DG]4 z2 [=FG]2 | %5
 [Ec]2 [DB]2 [CA]2 [DB]2 | [Ec]4 z2 [DB]2 | [Ec]2 [DB]2 [CA]2 [EG]2 | [FA]2 [DF]2 [CE]3 [EG] | %9
 [FA]2 [EG]2 [FA]2 [Ec]2 | [DB]2 [FA]2 [EG]3 [EG] | [FA]2 [Ec]2 [Ec]2 [DB]2 | %12
 !fermata![Ec]4 !breath!z2 |] %13
V:2
 [C,C]2 | [C,G,]2 [G,,G,]2 [F,C]2 [G,,G,]2 | [C,G,]4 z2 [G,,G,]2 | %3
 [C,G,]2 [G,,G,]2 [D,^F,]2 [D,F,]2 | [G,B,]4 z2 [G,B,]2 | [C,G,]2 [G,,G,]2 [=F,A,]2 [G,,G,]2 | %6
 [C,G,]4 z2 [G,,G,]2 | [C,G,]2 [G,,G,]2 [F,A,]2 [C,C]2 | [F,C]2 [G,B,]2 [C,G,]3 [C,C] | %9
 [F,C]2 [C,C]2 [F,C]2 [C,G,]2 | [G,,G,]2 [F,C]2 [C,C]3 [C,C] | [F,C]2 [C,G,]2 [C,G,]2 [G,,G,]2 | %12
 !fermata![C,G,]4 !breath!z2 |] %13

